X: 36201
T: Scotty Fitzgerald's
R: jig
M: 6/8
K: Gmajor
|:D|GAG B2 c|dgf edc|BAG DGB|c A2 A2 B|
GAG B2 c|dgf edc|BAG DGA|B2 G G2:|
d|b3 bgd|gfg d2 c|BAG DGB|c A2 A2 d|
b3 bgd|gfg dcB|cBc agf|(g3 g2) d|
b3 bgd|gfg d2 c|BAG gdB|c A2 A2 c|
Bcd GBd|cde Aag|fed cBA|B G2 G2||

